X:60
S:Efter Anna Pettersson, Myrungs i Linde.
S:(Orden av Nicander.)
M:3/4
L:1/8
K:Eb
G|B z G> G c> G|B2 A2 z2|A z A> A c> B|
w:Bi-an-ker! för sis-ta gån-gen hör nu min sitt-ra,
G z E z E z|E2 G> B e> d|d2 c2 z2|
w:hör, hör, hör! Sor-gen för-stäm-mer sån-gen,
B> B c B (A/B/) A|G4 z2|E2 G> B e> d|
w:sån-ga-ren av kär--lek dör. Sor-gen för-stäm-mer
d2 c2 z2| B> B c B A D|E4 z|]
w:sån-gen, sån-ga-ren av kär-lek dör.